ui/StatusQ/src/assets/img/icons/telegram.svg

<svg fill="none" height="22" viewBox="0 0 22 22" width="22" xmlns="http://www.w3.org/2000/svg"><g stroke="#939ba1" stroke-linecap="round" stroke-linejoin="round" stroke-width="1.5"><path d="m7.56245 11.5908 7.72725 6.8c.0894.0787.1977.1328.3143.157s.2375.0177.3509-.0188c.1133-.0366.2152-.1019.2957-.1897s.1368-.195.1634-.3111l3.2324-14.1051c.028-.12195.0221-.24922-.0169-.36809s-.1098-.22483-.2046-.30646c-.0948-.08164-.2101-.13586-.3334-.15681-.1234-.02095-.2501-.00785-.3666.0379l-15.86032 6.23085c-.13823.05431-.25515.15191-.33328.27821-.07813.12629-.11327.2745-.10014.4224.01312.148.07379.2877.17293.3982.09914.1106.23142.1861.37705.2152z"/><path d="m7.5625 11.5905 11.6971-8.44792"/><path d="m11.4217 14.9869-2.68556 2.6856c-.09615.0961-.21865.1616-.35201.1881-.13337.0266-.2716.0129-.39722-.0391-.12563-.052-.233-.1401-.30854-.2532-.07555-.1131-.11587-.246-.11587-.382v-5.5955"/></g></svg>

<svg width="22" height="22" viewBox="0 0 22 22" fill="none" xmlns="http://www.w3.org/2000/svg">
<path d="M7.56245 11.5908L15.2897 18.3908C15.3791 18.4695 15.4874 18.5236 15.604 18.5478C15.7206 18.572 15.8415 18.5655 15.9549 18.529C16.0682 18.4924 16.1701 18.4271 16.2506 18.3393C16.3311 18.2515 16.3874 18.1443 16.414 18.0282L19.6464 3.9231C19.6744 3.80115 19.6685 3.67388 19.6295 3.55501C19.5905 3.43614 19.5197 3.33018 19.4249 3.24855C19.3301 3.16691 19.2148 3.11269 19.0915 3.09174C18.9681 3.07079 18.8414 3.08389 18.7249 3.12964L2.86458 9.36049C2.72635 9.4148 2.60943 9.5124 2.5313 9.6387C2.45317 9.76499 2.41803 9.9132 2.43116 10.0611C2.44428 10.2091 2.50495 10.3488 2.60409 10.4593C2.70323 10.5699 2.83551 10.6454 2.98114 10.6745L7.56245 11.5908Z" stroke="#939BA1" stroke-width="1.5" stroke-linecap="round" stroke-linejoin="round"/>
<path d="M7.5625 11.5905L19.2596 3.14258" stroke="#939BA1" stroke-width="1.5" stroke-linecap="round" stroke-linejoin="round"/>
<path d="M11.4217 14.9869L8.73614 17.6725C8.63999 17.7686 8.51749 17.8341 8.38413 17.8606C8.25076 17.8872 8.11253 17.8735 7.98691 17.8215C7.86128 17.7695 7.75391 17.6814 7.67837 17.5683C7.60282 17.4552 7.5625 17.3223 7.5625 17.1863V11.5908" stroke="#939BA1" stroke-width="1.5" stroke-linecap="round" stroke-linejoin="round"/>
</svg>
